X: 1
T:The Humours of Glendart
M:6/8
L:1/8
K:D
A|BAF AFD|FEF DFA|BAF AFD|FEE EFA|\
BAF AFD|FEF DFA|dcB AFE|FDD D2 :|
A|def d2 B|ABA AFA|def d2 e|efe edB|\
def d2 B|ABA ABc|dcB AFE|FDD D2 :|
